X: 37070
T: Silver Spire, The
R: reel
M: 4/4
K: Dmajor
|:FE|D2FE DFAc|dcdf edAF|GABG FGAF|GFED CEA,C|
D2FE DFAc|d2df edAF|G2BG F2AF|EA,CE D2:|
|:CB,|A,B,CD EFGE|GFEF GABc|dcBA Bcde|f2gf e2 (3ABc|
d2fd c2ec|dcdA BAFD|G2BG F2AF|EA,CE D2:|

